img/icons/compass.svg

<svg viewBox="-59 0 512 512" xmlns="http://www.w3.org/2000/svg"><path d="m121.859375 166c0 41.351562 33.648437 75 75 75 41.355469 0 75-33.648438 75-75s-33.644531-75-75-75c-41.351563 0-75 33.648438-75 75zm75-21.210938 21.210937 21.210938-21.210937 21.210938-21.210937-21.210938zm0 0"/><path d="m368.816406 393.085938-91.824218-160.054688c-13.019532 15.539062-30.285157 27.109375-50.171876 33.085938l140.914063 245.882812 25.984375-15-25.296875-44.617188c10.328125-18.257812 11.140625-40.710937.394531-59.296874zm0 0"/><path d="m226.859375 65.894531v-65.894531h-60v65.894531c9.570313-2.878906 19.507813-4.894531 30-4.894531 10.496094 0 20.429687 2.015625 30 4.894531zm0 0"/><path d="m25.984375 512 140.914063-245.882812c-19.882813-5.976563-37.148438-17.546876-50.167969-33.082032l-91.828125 160.050782c-8 13.886718-10.136719 30.042968-5.992188 45.539062 1.371094 5.105469 3.527344 9.804688 6.09375 14.269531l-25.003906 44.105469zm0 0"/></svg>

<svg id="Layer_1" data-name="Layer 1" xmlns="http://www.w3.org/2000/svg" viewBox="0 0 393.71875 512">
  <defs>
    <style>
      .cls-1 {
        fill: #b3bdf4;
      }
    </style>
  </defs>
  <title>compass</title>
  <path class="cls-1" d="M121.85938,166a75,75,0,1,0,75-75A75,75,0,0,0,121.85938,166Zm75-21.21094L218.07031,166l-21.21093,21.21094L175.64844,166Z"/>
  <path class="cls-1" d="M368.81641,393.08594,276.99219,233.03125a104.54978,104.54978,0,0,1-50.17188,33.08594L367.73438,512l25.98437-15-25.29687-44.61719C378.75,434.125,379.5625,411.67188,368.81641,393.08594Z"/>
  <path class="cls-1" d="M226.85938,65.89453V0h-60V65.89453a103.561,103.561,0,0,1,30-4.89453A103.5398,103.5398,0,0,1,226.85938,65.89453Z"/>
  <path class="cls-1" d="M25.98438,512,166.89844,266.11719a104.57766,104.57766,0,0,1-50.168-33.082L24.90234,393.08594a58.7103,58.7103,0,0,0,.10157,59.80859L0,497Z"/>
</svg>
